X:1
T:Round Cape Horn
M:4/4
L:1/4
K:F
 C F F3/2 F/2| G A F2| A3/2 A/2 B G| A B c2| G3/2 A/2 B G| A B c3/2 A/2|\
 G B A c| F3/2 F/2 D- C| C G G2| G/2A/2 G/2F/2 G2| G c c B| A/2B/2 A/2G/2 F2|\
